X:1
T:[ID 1-84]
T:[ID 1-84]
T:Bezeichnung standardisiert: Polonaise Pol
T:Urheber unbekannt Datum in der hier transkribierten schriftlichen Quelle: vermutlich vor 1767
C:Urheber unbekannt
C:Datum in der hier transkribierten schriftlichen Quelle: vermutlich vor 1767
L:1/8
M:3/4
K:D
V:1 treble 
V:1
 FE/D/ A2 d2 | c[A,E] [A,E][A,E][A,E][A,E] | cB/A/ e2 g2 | fDDDDD | fe/d/ f2 a2 | %5
 g[A,E] [A,E][A,E][A,E][A,E] | cB/A/ e2 f2 | cB/A/ e2 f2 | gg/f/ g2 g2 | %9
 (b/a/)(g/f/) (g/f/)(e/d/) (e/d/)(c/B/) | cB/c/ A2 A2 | FE/D/ A2 d2 | cB/A/ e2 g2 | ff/e/ fABc | %14
 de/c/ d2 D2 :| %15

